Dominus_Dark_Funeral/scalable/apps/gnome-panel-window-list.svg

<?xml version="1.0" encoding="UTF-8" standalone="no"?><svg xmlns:dc="http://purl.org/dc/elements/1.1/" xmlns:cc="http://creativecommons.org/ns#" xmlns:rdf="http://www.w3.org/1999/02/22-rdf-syntax-ns#" xmlns="http://www.w3.org/2000/svg" xmlns:xlink="http://www.w3.org/1999/xlink" width="48" height="48" viewBox="0 0 12.7 12.7"><metadata><rdf:RDF><cc:Work><dc:format>image/svg+xml</dc:format><dc:type rdf:resource="http://purl.org/dc/dcmitype/StillImage"/><dc:title/></cc:Work></rdf:RDF></metadata><defs><linearGradient id="d"><stop offset="0"/><stop offset="1" stop-opacity=".06"/></linearGradient><linearGradient id="b"><stop offset="0" stop-color="#7c6f91"/><stop offset=".21" stop-color="#c4b7c8"/><stop offset=".36" stop-color="#453748"/><stop offset=".42" stop-color="#8a6f91"/><stop offset=".59" stop-color="#c4b7c8"/><stop offset="1" stop-color="#e2dbe3"/></linearGradient><linearGradient id="a"><stop offset="0"/><stop offset="1" stop-opacity="0"/></linearGradient><linearGradient xlink:href="#b" id="e" x1="6.24" y1="-.12" x2="6.24" y2="13.41" gradientUnits="userSpaceOnUse"/><linearGradient xlink:href="#c" id="g" x1="24.62" y1="12.59" x2="24.51" y2="28.5" gradientUnits="userSpaceOnUse" gradientTransform="matrix(.1947 0 0 .19593 1.33 4.05)"/><linearGradient id="c"><stop offset="0" stop-color="#999"/><stop offset="1" stop-color="#fff"/></linearGradient><linearGradient xlink:href="#d" id="f" gradientUnits="userSpaceOnUse" gradientTransform="matrix(.92494 0 0 .92494 .55 .96)" x1="3" y1="5.13" x2="12.29" y2="12.14"/></defs><path d="M6.35.1C4.81.1 3.57.38 2.66.96A3.67 3.67 0 0 0 1 4.22c0 1.91 1.54 4.47 2.01 5.2.54.85 1.13 1.61 1.65 2.16.68.7 1.21 1.03 1.69 1.03s1.01-.33 1.69-1.03a15.2 15.2 0 0 0 1.65-2.15c.47-.74 2-3.3 2-5.21 0-1.42-.57-2.54-1.65-3.25A6.75 6.75 0 0 0 6.35.1z" fill="url(#e)"/><path d="M1.37 2.42a3.67 3.67 0 0 0-.3.91 3.67 3.67 0 0 0-.07.89c0 .17.02.38.04.58h10.6a4.53 4.53 0 0 0-.06-1.59 3.74 3.74 0 0 0-.28-.79z" color="#000" fill="#d4fbc1"/><path d="M2.13 3.22h.8v.8h-.8zM3.46 3.22h.79v.8h-.8zM4.78 3.22h.8v.8h-.8zM7.95 3.48h2.65v.27H7.95z" color="#000" fill="#333"/><path d="M6.35.1C4.81.1 3.57.38 2.66.96A3.67 3.67 0 0 0 1 4.22c0 1.91 1.54 4.47 2.01 5.2.54.85 1.13 1.61 1.65 2.16.68.7 1.21 1.03 1.69 1.03s1.01-.33 1.69-1.03a15.2 15.2 0 0 0 1.65-2.15c.47-.74 2-3.3 2-5.21 0-1.42-.57-2.54-1.65-3.25A6.75 6.75 0 0 0 6.35.1zm0 .03C6.91.15 7.44.2 7.9.31a5.82 5.82 0 0 1 1.6.66 3.65 3.65 0 0 1 1.24 1.36c.14.27.25.57.32.88a4.61 4.61 0 0 1-.14 2.53c-.15.52-.36 1.04-.58 1.52-.44.97-.95 1.8-1.18 2.17a15.2 15.2 0 0 1-1.65 2.15 4.9 4.9 0 0 1-.92.78.96.96 0 0 1-.24.1.96.96 0 0 1-.24-.1 4.76 4.76 0 0 1-.92-.78 14.41 14.41 0 0 1-1.65-2.15 19.2 19.2 0 0 1-1.18-2.17c-.22-.48-.43-1-.58-1.52a4.6 4.6 0 0 1-.14-2.52 3.73 3.73 0 0 1 .84-1.64 3.65 3.65 0 0 1 1.45-1A6.83 6.83 0 0 1 6.35.13z" opacity=".2"/><path d="M6.86 12.44c.09-.03.17-.02.26-.08.28-.17.58-.43.92-.78.48-.5 1.01-1.22 1.52-1.98.29-.45.48-.82.7-1.2l.33-.62-1.83-1.83-4.68 3.72z" opacity=".5" fill="url(#f)"/><path d="M4.16 6.7h4.5v2.88h-4.5z" fill="url(#g)"/><path d="M4.08 5.96v3.71h4.68V5.95zm.2.85h4.3v2.7h-4.3z" fill="#333"/></svg>

<?xml version="1.0" encoding="UTF-8" standalone="no"?>
<svg
   xmlns:dc="http://purl.org/dc/elements/1.1/"
   xmlns:cc="http://creativecommons.org/ns#"
   xmlns:rdf="http://www.w3.org/1999/02/22-rdf-syntax-ns#"
   xmlns:svg="http://www.w3.org/2000/svg"
   xmlns="http://www.w3.org/2000/svg"
   xmlns:xlink="http://www.w3.org/1999/xlink"
   xmlns:sodipodi="http://sodipodi.sourceforge.net/DTD/sodipodi-0.dtd"
   xmlns:inkscape="http://www.inkscape.org/namespaces/inkscape"
   width="48"
   height="48"
   viewBox="0 0 12.7 12.7"
   version="1.1"
   id="svg51"
   sodipodi:docname="gnome-panel-window-list.svg"
   inkscape:version="0.92.4 (5da689c313, 2019-01-14)">
  <sodipodi:namedview
     pagecolor="#ffffff"
     bordercolor="#666666"
     borderopacity="1"
     objecttolerance="10"
     gridtolerance="10"
     guidetolerance="10"
     inkscape:pageopacity="0"
     inkscape:pageshadow="2"
     inkscape:window-width="1112"
     inkscape:window-height="480"
     id="namedview53"
     showgrid="false"
     inkscape:zoom="4.9166667"
     inkscape:cx="2.1355932"
     inkscape:cy="24"
     inkscape:window-x="0"
     inkscape:window-y="25"
     inkscape:window-maximized="0"
     inkscape:current-layer="svg51" />
  <metadata
     id="metadata2">
    <rdf:RDF>
      <cc:Work>
        <dc:format>image/svg+xml</dc:format>
        <dc:type
           rdf:resource="http://purl.org/dc/dcmitype/StillImage" />
        <dc:title></dc:title>
      </cc:Work>
    </rdf:RDF>
  </metadata>
  <defs
     id="defs35">
    <linearGradient
       id="d">
      <stop
         offset="0"
         id="stop4" />
      <stop
         offset="1"
         stop-opacity=".06"
         id="stop6" />
    </linearGradient>
    <linearGradient
       id="b">
      <stop
         offset="0"
         stop-color="#7c6f91"
         id="stop9" />
      <stop
         offset=".21"
         stop-color="#c4b7c8"
         id="stop11" />
      <stop
         offset=".36"
         stop-color="#453748"
         id="stop13" />
      <stop
         offset=".42"
         stop-color="#8a6f91"
         id="stop15" />
      <stop
         offset=".59"
         stop-color="#c4b7c8"
         id="stop17" />
      <stop
         offset="1"
         stop-color="#e2dbe3"
         id="stop19" />
    </linearGradient>
    <linearGradient
       id="a">
      <stop
         offset="0"
         id="stop22" />
      <stop
         offset="1"
         stop-opacity="0"
         id="stop24" />
    </linearGradient>
    <linearGradient
       xlink:href="#b"
       id="e"
       x1="6.24"
       y1="-.12"
       x2="6.24"
       y2="13.41"
       gradientUnits="userSpaceOnUse" />
    <linearGradient
       xlink:href="#c"
       id="g"
       x1="24.62"
       y1="12.59"
       x2="24.51"
       y2="28.5"
       gradientUnits="userSpaceOnUse"
       gradientTransform="matrix(0.1947,0,0,0.19593,1.33,4.05)" />
    <linearGradient
       id="c">
      <stop
         offset="0"
         stop-color="#999"
         id="stop29" />
      <stop
         offset="1"
         stop-color="#fff"
         id="stop31" />
    </linearGradient>
    <linearGradient
       xlink:href="#d"
       id="f"
       gradientUnits="userSpaceOnUse"
       gradientTransform="matrix(0.92494,0,0,0.92494,0.55,0.96)"
       x1="3"
       y1="5.13"
       x2="12.29"
       y2="12.14" />
  </defs>
  <path
     d="M 6.35,0.1 C 4.81,0.1 3.57,0.38 2.66,0.96 A 3.67,3.67 0 0 0 1,4.22 c 0,1.91 1.54,4.47 2.01,5.2 0.54,0.85 1.13,1.61 1.65,2.16 0.68,0.7 1.21,1.03 1.69,1.03 0.48,0 1.01,-0.33 1.69,-1.03 A 15.2,15.2 0 0 0 9.69,9.43 c 0.47,-0.74 2,-3.3 2,-5.21 0,-1.42 -0.57,-2.54 -1.65,-3.25 A 6.75,6.75 0 0 0 6.35,0.1 Z"
     id="path37"
     style="fill:url(#e)"
     inkscape:connector-curvature="0" />
  <path
     d="M 1.37,2.42 A 3.67,3.67 0 0 0 1.07,3.33 3.67,3.67 0 0 0 1,4.22 C 1,4.39 1.02,4.6 1.04,4.8 h 10.6 A 4.53,4.53 0 0 0 11.58,3.21 3.74,3.74 0 0 0 11.3,2.42 Z"
     id="path39"
     inkscape:connector-curvature="0"
     style="color:#000000;fill:#d4fbc1" />
  <path
     d="m 2.13,3.22 h 0.8 v 0.8 h -0.8 z m 1.33,0 h 0.79 v 0.8 h -0.8 z m 1.32,0 h 0.8 v 0.8 H 4.78 Z M 7.95,3.48 H 10.6 V 3.75 H 7.95 Z"
     id="path41"
     inkscape:connector-curvature="0"
     style="color:#000000;fill:#333333" />
  <path
     d="M 6.35,0.1 C 4.81,0.1 3.57,0.38 2.66,0.96 A 3.67,3.67 0 0 0 1,4.22 c 0,1.91 1.54,4.47 2.01,5.2 0.54,0.85 1.13,1.61 1.65,2.16 0.68,0.7 1.21,1.03 1.69,1.03 0.48,0 1.01,-0.33 1.69,-1.03 A 15.2,15.2 0 0 0 9.69,9.43 c 0.47,-0.74 2,-3.3 2,-5.21 0,-1.42 -0.57,-2.54 -1.65,-3.25 A 6.75,6.75 0 0 0 6.35,0.1 Z m 0,0.03 C 6.91,0.15 7.44,0.2 7.9,0.31 a 5.82,5.82 0 0 1 1.6,0.66 3.65,3.65 0 0 1 1.24,1.36 c 0.14,0.27 0.25,0.57 0.32,0.88 A 4.61,4.61 0 0 1 10.92,5.74 C 10.77,6.26 10.56,6.78 10.34,7.26 9.9,8.23 9.39,9.06 9.16,9.43 A 15.2,15.2 0 0 1 7.51,11.58 4.9,4.9 0 0 1 6.59,12.36 0.96,0.96 0 0 1 6.35,12.46 0.96,0.96 0 0 1 6.11,12.36 4.76,4.76 0 0 1 5.19,11.58 14.41,14.41 0 0 1 3.54,9.43 19.2,19.2 0 0 1 2.36,7.26 C 2.14,6.78 1.93,6.26 1.78,5.74 A 4.6,4.6 0 0 1 1.64,3.22 3.73,3.73 0 0 1 2.48,1.58 3.65,3.65 0 0 1 3.93,0.58 6.83,6.83 0 0 1 6.35,0.13 Z"
     id="path43"
     inkscape:connector-curvature="0"
     style="opacity:0.2" />
  <path
     d="M 6.86,12.44 C 6.95,12.41 7.03,12.42 7.12,12.36 7.4,12.19 7.7,11.93 8.04,11.58 8.52,11.08 9.05,10.36 9.56,9.6 9.85,9.15 10.04,8.78 10.26,8.4 L 10.59,7.78 8.76,5.95 4.08,9.67 Z"
     id="path45"
     style="opacity:0.5;fill:url(#f)"
     inkscape:connector-curvature="0" />
  <path
     d="m 4.16,6.7 h 4.5 v 2.88 h -4.5 z"
     id="path47"
     style="fill:url(#g)"
     inkscape:connector-curvature="0" />
  <path
     d="M 4.08,5.96 V 9.67 H 8.76 V 5.95 Z m 0.2,0.85 h 4.3 v 2.7 h -4.3 z"
     id="path49"
     inkscape:connector-curvature="0"
     style="fill:#333333" />
</svg>
